X:1
T:Gather Jewels for the King
T:Oskar Ahnfelt, 1872
T:Gather Jewels for the King
T:Public Domain
T:Public Domain
T:Public Domain
T:Public Domain
C:Oskar Ahnfelt, 1872
Z:Public Domain
%%score ( 1 2 ) ( 3 4 )
L:1/8
M:4/4
K:Eb
V:1 treble 
V:2 treble 
V:3 bass 
V:4 bass 
V:1
 ([B,G][B,F]) | [B,E]3 [B,E] [B,E][B,E][B,F][B,G] | [CG]2 [CF]4 [CF][CE] | %3
w: 1.~O~ *|ea- ger hand, what are you|seek- ing? For the|
w: 2.~O *|rest- less brain, what keeps you|burn- ing? Is it|
w: 3.~O *|ran- somed soul, for what the|liv- ing? Fo- r|
w: 4.~The *|gold of mount- ain, gems of|o- cean, Were worth|
w: 5.~There~are *|jew- els worth a life’s hard|toil- ing Lost in|
w: 6.~There~is *|not a soul so black with|sin- ning That the|
 [B,D]3 [B,D] [B,D][B,E][B,F][B,D] | [B,E]6 [B,G][B,F] | [B,E]3 [B,E] [B,E][B,E] | [B,F][B,G] | %7
w: gold the rug- ged mount- ains|keep? For the|pure white pearls, their|beau- ty|
w: se- crets hid in an- cient|lore? Or the|mys- tic leaves of|na- ture|
w: what your la- bors, prayers and|tears? O- h,|what is worth the|price- less|
w: strug- gling if life meant much|less; Bu- t|what re- pays a|soul’s de-|
w: sin and shame’s dark o- cean|waves, An- d|gems that world- ly|rust is|
w: Lamb’s pure blood can- not re-|store; Then let|all your strength be|spent in|
 [CG]2 [CF]4 [CF][CE] | [B,D]3 [B,D] [B,D][B,E][B,F][B,D] | [B,E]6 [EG][EA] | %10
w: ly- ing ’Neath the|tan- gled sea- weed of the|deep? Do you|
w: turn- ing, Read- ing|where so ma- ny failed be-|fore? Do you|
w: giv- ing— Time pre-|par- ing for im- mor- tal|years? Do you|
w: vo- tion, But that|which e- ter- nal years will|bless? Can the|
w: spoil- ing, And gold|bur- ied deep in liv- ing|graves; Ga- ther|
w: win- ning Th- e|lost to lov- ing arms once|more. Then will|
 [EB]3 [EB] [EB][EB][Ee][Ed] | [Ed]2 [Ec]4 [DF][EG] | [DA]3 [DA] [FA][Dc][EB][FA] | %13
w: search the sands of dist- ant|riv- er, Where the|pre- cious star- like dia- monds|
w: strive that ere the strug- gle|clos- es Laur- el|crown at last may grace your|
w: ga- ther flowers that fade while|blow- ing All their|sweet- ness on the air of|
w: gold and gems of earth be|tak- en When the|King comes for His jew- els|
w: them, though bil- lows cold are|break- ing, And the|tem- pest bit- ter- ness may|
w: life be like a peace- ful|riv- er, And then|death “Well done!” and crown will|
 [EG]6 [B,G][B,F] | [B,E]3 [B,E] [B,E][B,E][B,F][B,G] | [CG]2 [CF]4 [CF][CE] | [B,D]3 [B,D] DEFD | %17
w: hide? Do you|wait be- side some o- cean|ev- er, For the|ships that left with morn- ing|
w: head? For a|glor- ious name en- wreathed with|ros- es, To live|on when o- thers are all|
w: June? Do you|rest where rip- ened grain is|grow- ing, Though the|night- time com- eth all too|
w: bright? When the|crowns of earth are all for-|sak- en, And the|spir- it takes it up- ward|
w: bring; Save those|pre- cious gems, though heart be|ach- ing; O, \-|ga- ther jew- els for the|
w: bring, While in|His bright homes will shine for-|ev- er All the|jewels you ga- thered for the|
 [B,E]6 |] %18
w: |
w: |
w: |
w: |
w: |
w: |
V:2
 x2 | x8 | x8 | x8 | x8 | x6 | x2 | x8 | x8 | x8 | x8 | x8 | x8 | x8 | x8 | x8 | x4 B,2 B,2 | x6 |] %18
w: ||||||||||||||||tide? *||
w: ||||||||||||||||dead? *||
w: ||||||||||||||||soon? *||
w: ||||||||||||||||flight? *||
w: ||||||||||||||||King! *||
w: ||||||||||||||||King. *||
V:3
 [E,B,][E,A,] | [E,G,]3 [E,G,] [E,G,][E,G,][E,A,][E,B,] | [A,,B,]2 [A,,A,]4 [A,,A,][=A,,F,] | %3
 [B,,F,]3 [B,,F,] [B,,F,][B,,G,][B,,A,][B,,F,] | [E,G,]6 [E,B,][E,A,] | %5
 [E,G,]3 [E,G,] [E,G,][E,G,] | [E,A,][E,B,] | [A,,B,]2 [A,,A,]4 [A,,A,][=A,,F,] | %8
 [B,,F,]3 [B,,F,] [B,,F,][B,,G,][B,,A,][B,,F,] | [E,G,]6 [E,B,][F,B,] | %10
 [G,B,]3 [G,B,] [G,B,][G,B,][G,,B,][G,,B,] | [A,,B,]2 [A,,A,]4 [A,B,][G,B,] | %12
 [F,B,]3 [F,B,] [D,B,][B,,F,][C,B,][D,B,] | [E,B,]6 [E,B,][E,A,] | %14
 [E,G,]3 [E,G,] [E,G,][E,G,][E,A,][E,B,] | [A,,B,]2 [A,,A,]4 [A,,A,][=A,,F,] | %16
 [B,,F,]3 [B,,F,] (F,G,) [B,,A,]2 | [E,G,]6 |] %18
V:4
 x2 | x8 | x8 | x8 | x8 | x6 | x2 | x8 | x8 | x8 | x8 | x8 | x8 | x8 | x8 | x8 | x4 B,,2 x2 | x6 |] %18

